web-components-icons/ea00-chart/SVG/bar.svg

<?xml version="1.0" encoding="utf-8"?>
<!-- Generator: Adobe Illustrator 24.2.0, SVG Export Plug-In . SVG Version: 6.00 Build 0)  -->
<svg version="1.1" id="Layer_1" xmlns="http://www.w3.org/2000/svg" xmlns:xlink="http://www.w3.org/1999/xlink" x="0px" y="0px"
	 width="512px" height="512px" viewBox="0 0 512 512" xml:space="preserve">
<path d="M480,448v32H32V32h32v416H480z M224,320V96h-32v32h-64v32h64v256h32v-64h64v-32H224z M416,96V32h-32v160h-64v32h64v96h32
	V128h64V96H416z"/>
</svg>

<svg xmlns="http://www.w3.org/2000/svg" viewBox="0 0 512 512"><title>bar</title><g id="bar"><path d="M480,448v32H32V32H64V448ZM224,320V96H192v32H128v32h64V416h32V352h64V320ZM416,96V32H384V192H320v32h64v96h32V128h64V96Z"/></g></svg>
